lib/svgs/usercase-create.svg

<?xml version="1.0" encoding="UTF-8"?>
<svg width="16px" height="16px" viewBox="0 0 16 16" version="1.1" xmlns="http://www.w3.org/2000/svg" xmlns:xlink="http://www.w3.org/1999/xlink">
    <!-- Generator: sketchtool 51.3 (57544) - http://www.bohemiancoding.com/sketch -->
    <title>test-case/usercase-create</title>
    <desc>Created with sketchtool.</desc>
    <defs></defs>
    <g id="Icons" stroke="none" stroke-width="1" fill="none" fill-rule="evenodd">
        <g id="Artboard" transform="translate(-127.000000, -214.000000)" fill="#000000" fill-rule="nonzero">
            <g id="test-case/usercase-create" transform="translate(127.000000, 214.000000)">
                <path d="M3.256,4.42136842 C2.90718858,4.42136842 2.62442105,4.13860089 2.62442105,3.78978947 C2.62442105,3.44097805 2.90718858,3.15821053 3.256,3.15821053 L10.0770526,3.15821053 C10.4258641,3.15821053 10.7086316,3.44097805 10.7086316,3.78978947 C10.7086316,4.13860089 10.4258641,4.42136842 10.0770526,4.42136842 L3.256,4.42136842 Z M3.51915789,7.57926316 C3.17034647,7.57926316 2.88757895,7.29649563 2.88757895,6.94768421 C2.88757895,6.59887279 3.17034647,6.31610526 3.51915789,6.31610526 L6.14021053,6.31610526 C6.48902195,6.31610526 6.77178947,6.59887279 6.77178947,6.94768421 C6.77178947,7.29649563 6.48902195,7.57926316 6.14021053,7.57926316 L3.51915789,7.57926316 Z M12.6315789,12.6318947 L12.6315789,11.1582105 C12.6315789,10.8093991 12.9143465,10.5266316 13.2631579,10.5266316 C13.6119693,10.5266316 13.8947368,10.8093991 13.8947368,11.1582105 L13.8947368,12.6318947 L15.3684211,12.6318947 C15.7172325,12.6318947 16,12.9146623 16,13.2634737 C16,13.6122851 15.7172325,13.8950526 15.3684211,13.8950526 L13.8947368,13.8950526 L13.8947368,15.3687368 C13.8947368,15.7175483 13.6119693,16.0003158 13.2631579,16.0003158 C12.9143465,16.0003158 12.6315789,15.7175483 12.6315789,15.3687368 L12.6315789,13.8950526 L11.1578947,13.8950526 C10.8090833,13.8950526 10.5263158,13.6122851 10.5263158,13.2634737 C10.5263158,12.9146623 10.8090833,12.6318947 11.1578947,12.6318947 L12.6315789,12.6318947 Z M13.8947368,8.18842105 C13.8947368,8.53723247 13.6119693,8.82 13.2631579,8.82 C12.9143465,8.82 12.6315789,8.53723247 12.6315789,8.18842105 L12.6315789,2.21052632 C12.6315789,1.69091668 12.2038202,1.26315789 11.6842105,1.26315789 L2.21052632,1.26315789 C1.69091668,1.26315789 1.26315789,1.69091668 1.26315789,2.21052632 L1.26315789,11.6842105 C1.26315789,12.2038202 1.69091668,12.6315789 2.21052632,12.6315789 L8.39157895,12.6315789 C8.74039037,12.6315789 9.02315789,12.9143465 9.02315789,13.2631579 C9.02315789,13.6119693 8.74039037,13.8947368 8.39157895,13.8947368 L2.21052632,13.8947368 C0.993293842,13.8947368 0,12.901443 0,11.6842105 L0,2.21052632 C0,0.993293842 0.993293842,0 2.21052632,0 L11.6842105,0 C12.901443,0 13.8947368,0.993293842 13.8947368,2.21052632 L13.8947368,8.18842105 Z" id="usercase-create"></path>
            </g>
        </g>
    </g>
</svg>

<svg xmlns="http://www.w3.org/2000/svg" viewBox="0 0 16 16">
    <path d="M3.256 4.421a.632.632 0 0 1 0-1.263h6.821a.632.632 0 1 1 0 1.263H3.256zm.263 3.158a.632.632 0 0 1 0-1.263H6.14a.632.632 0 0 1 0 1.263H3.52zm9.113 5.053v-1.474a.632.632 0 0 1 1.263 0v1.474h1.473a.632.632 0 0 1 0 1.263h-1.473v1.474a.632.632 0 1 1-1.263 0v-1.474h-1.474a.632.632 0 1 1 0-1.263h1.474zm1.263-4.444a.632.632 0 1 1-1.263 0V2.211a.952.952 0 0 0-.948-.948H2.211a.952.952 0 0 0-.948.948v9.473c0 .52.428.948.948.948h6.18a.632.632 0 0 1 0 1.263h-6.18A2.215 2.215 0 0 1 0 11.685V2.21C0 .993.993 0 2.21 0h9.474c1.217 0 2.21.993 2.21 2.21v5.978z"/>
</svg>
